X: 33534
T: Rainy Day, The
R: reel
M: 4/4
K: Adorian
AG|:EAAG ~A3 B|cded cBAc|BG ~G2 dG ~G2|(3Bcd gd edBG|
EAAG ~A3 B|c2AB cdef|~g2 fa gedB|GBdB BA A2:|
eaag eaag|edef g2 eg|dggg a2ga|bgab gedg|
eaag eaag|edef g2 gf|gedB GABd|egdB BA A2:|

